X: 34965
T: Rocky's
R: reel
M: 4/4
K: Cmajor
~c3e gcea|agea gede|~c3e gcea|agec dGBd|
cGcd eg~g2|aged cde2|fede edcA|1 dcAG Aged:|2 dcAG ~A3B||
|:cG~G2 cdeg|dA~A2 dfed|cG~G2 cdeg|aege dged|
cG~G2 cdeg|dA~A2 dfed|cG~G2 cdeg|aege ~d3e:|

